public/images/qq.svg

import SpriteSymbol from "svg-baker-runtime/browser-symbol";
import sprite from "svg-sprite-loader/runtime/browser-sprite.build";
var symbol = new SpriteSymbol({
  "id": "icon-qq",
  "use": "icon-qq-usage",
  "viewBox": "0 0 1024 1024",
  "content": "<symbol class=\"icon\" viewBox=\"0 0 1024 1024\" id=\"icon-qq\"><defs><style type=\"text/css\"></style></defs><path d=\"M273.5104 480.17408 272.31232 476.44672 271.33952 471.6032 270.6944 468.95104 270.6944 465.6128 270.6944 461.62944 270.6944 458.02496 271.85152 453.72416 273.02912 449.1776 274.5856 444.40576 276.6848 439.0912 279.43936 433.57184 283.33056 428.04224 283.33056 424.17152 283.70944 420.54656 284.3136 415.62112 285.98272 410.08128 287.51872 404.10112 288.74752 401.3568 290.16064 398.7968 291.98336 395.95008 293.96992 393.8304 293.96992 389.9392 293.96992 385.56672 293.96992 380.16 295.1168 373.11488 296.27392 364.93312 298.33216 355.14368 301.16864 344.95488 303.27808 339.3536 305.36704 333.2608 307.6608 327.5776 310.40512 321.4848 313.20064 314.81856 316.416 308.57216 320.03072 301.90592 324.58752 295.24992 326.69696 291.4304 328.93952 288.3072 333.824 281.26208 338.85184 274.23744 344.55552 267.008 350.6688 259.97312 357.30432 253.04064 364.22656 245.9136 372.60288 238.22336 377.91744 233.54368 384.39936 228.49536 390.97344 224.04096 398.08 219.76064 404.91008 215.95136 412.61056 212.79744 420.79232 208.91648 428.92288 206.25408 437.03296 203.48928 445.7984 200.74496 454.5536 198.656 463.75936 196.9152 473.09824 195.40992 482.31424 194.18112 491.52 192.9216 501.34016 192.38912 510.67904 192.38912 520.33536 192.38912 530.35008 192.38912 540.01664 193.60768 549.7344 194.7648 559.63648 195.79904 568.832 198.01088 578.53952 200.07936 587.65312 202.45504 597.63712 205.1072 606.7712 208.34304 615.51616 212.03968 624.85504 215.95136 633.37472 220.22144 641.65888 224.9728 649.7792 230.20544 656.77312 235.06944 660.0192 237.81376 663.41888 239.8208 669.91104 245.32992 675.3792 250.65472 680.83712 256.16384 686.15168 262.2464 690.5344 268.14464 695.7568 274.23744 699.392 280.7808 703.0784 286.59712 706.99008 293.36576 710.23616 299.25376 715.69408 311.71584 718.37696 318.1568 720.47616 324.12672 722.57536 330.60864 724.45952 336.70144 725.77024 341.94432 727.47008 348.1088 730.44992 359.1168 732.35456 368.75264 733.5936 378.07104 734.65856 385.56672 736.33792 396.98432 736.7168 398.7968 738.05824 400.85504 741.67296 406.76352 743.99744 410.76736 746.05568 414.93504 748.67712 419.39968 750.99136 424.7552 752.49664 430.2336 754.13504 436.24448 755.37408 442.40896 755.93728 445.44 756.45952 449.1776 756.45952 452.42368 755.93728 455.63904 755.93728 459.64288 754.9952 463.52384 753.27488 471.04 751.29856 474.83904 749.83424 479.10912 749.83424 480.17408 750.53056 481.49504 752.49664 484.61824 761.05728 497.28512 767.81568 506.79808 771.05152 513.14688 775.41376 520.09984 779.2128 527.7184 783.59552 535.8592 787.97824 545.01376 792.91392 555.37664 795.6992 561.72544 798.23872 567.93088 800.43008 574.47424 802.59072 580.36224 804.23936 586.5472 805.91872 592.35328 808.0384 603.67872 809.71776 615.24992 810.87488 625.5104 810.87488 631.11168 810.87488 635.71968 810.87488 639.98976 810.09664 645.12 808.99072 653.9776 807.4752 661.93408 805.12 669.15328 804.23936 672.09216 802.59072 675.6352 801.21856 678.10304 799.37536 681.14432 797.75744 683.0592 795.6992 685.53728 793.856 687.53408 791.88992 689.24416 789.53472 690.2784 787.41504 691.31264 785.67424 691.88608 784.15872 691.88608 783.01184 691.88608 781.312 691.31264 778.07616 689.7152 776.59136 688.65024 775.03488 687.53408 773.33504 686.00832 771.61472 684.29824 768.77824 681.14432 765.41952 676.68992 762.7776 672.09216 760.13568 668.416 757.5552 664.13568 753.92 656.5376 749.83424 648.63232 749.35296 648.35584 748.67712 648.35584 747.01824 649.59488 746.05568 651.6736 744.45824 654.25408 741.67296 661.93408 737.47456 672.86016 732.09856 686.00832 728.05376 692.56192 723.8144 699.40224 718.77632 707.09248 713.43104 714.61888 710.69696 718.0288 707.3792 721.74592 699.7504 729.2416 700.416 729.91744 701.45024 730.99264 705.25952 733.22496 721.13152 740.85376 728.05376 744.7552 734.65856 748.544 741.19168 753.31584 747.01824 758.23104 749.83424 760.45312 751.95392 763.01312 754.13504 765.98272 755.93728 769.19808 756.91008 771.87072 758.09792 775.07584 758.60992 777.85088 759.17312 781.08672 758.60992 783.2576 758.60992 785.4592 758.09792 787.73248 756.91008 789.8112 756.45952 791.43936 755.37408 793.41568 752.49664 797.3376 749.83424 800.48128 747.776 802.83648 746.05568 804.57728 741.67296 807.77216 736.7168 810.55744 731.43296 813.21984 725.77024 815.77984 719.45216 818.25792 716.05248 819.29216 713.07264 820.13184 705.73056 821.84192 698.15296 823.47008 690.5344 825.088 682.25024 826.43968 673.71008 826.79808 664.95488 827.8528 656.29184 827.8528 647.17824 827.8528 637.77792 827.8528 627.97824 827.27936 618.8544 826.43968 609.01376 825.088 599.25504 824.04352 588.97408 822.60992 579.01056 820.13184 569.2928 818.25792 559.63648 815.49312 549.7344 811.95008 540.01664 809.02144 534.89664 807.31136 530.35008 805.69344 527.47264 804.57728 524.61568 803.97312 520.93952 803.97312 516.53632 803.97312 507.19744 803.31776 502.4768 802.83648 496.39424 802.16064 492.4928 805.69344 487.168 809.02144 479.9488 812.53376 471.9616 816.91648 467.10784 819.29216 462.03904 821.17632 450.84672 825.7536 444.76416 827.27936 438.38464 828.99968 429.53728 830.72 423.99744 831.15008 418.14016 831.65184 412.02688 832.32768 404.91008 832.59392 398.08 832.59392 390.97344 832.59392 375.83872 832.59392 359.424 832.32768 343.48032 830.72 335.4112 829.57312 327.61856 828.416 320.03072 827.27936 312.44288 825.7536 305.36704 823.47008 298.33216 821.84192 291.98336 819.29216 285.98272 816.91648 280.38144 814.24384 275.51744 811.32544 270.6944 807.77216 269.04576 806.05184 266.88512 803.97312 265.24672 802.16064 263.77216 800.07168 262.41024 797.99296 261.35552 795.89376 259.82976 791.43936 259.29728 789.13536 258.62144 786.57536 258.62144 784.20992 259.29728 781.53728 259.29728 778.88512 259.82976 776.23296 259.82976 774.61504 259.82976 770.87744 260.08576 768.0512 261.35552 764.81536 262.41024 761.57952 264.32512 757.67808 265.728 756.1728 266.88512 754.432 269.90592 750.73536 272.31232 748.83072 274.5856 747.49952 276.6848 745.80992 280.00256 744.7552 282.66496 743.13728 285.98272 741.4272 289.76128 740.29056 293.56032 739.13344 297.96352 738.17088 302.1312 737.61792 307.07712 736.9728 312.44288 736.5632 313.83552 736.1024 314.14272 736.1024 314.81856 735.52896 314.81856 734.8736 313.83552 733.5424 310.9888 732.19072 303.872 726.02624 299.08992 722.21696 293.56032 717.37344 287.98976 711.95648 282.19392 705.03424 275.51744 697.23136 273.02912 693.01248 269.73184 688.65024 266.88512 683.61216 264.32512 678.10304 260.87424 672.86016 258.62144 666.88 255.93856 660.91008 253.25568 654.25408 251.31008 647.87456 249.45664 639.98976 248.90368 639.70304 248.34048 639.70304 248.05376 639.13984 247.36768 639.13984 246.24128 639.70304 245.67808 639.98976 244.89984 641.31072 244.62336 642.9184 244.03968 644.352 243.02592 646.73792 239.7696 652.53376 238.08 656.04608 235.39712 659.10784 232.5504 662.79424 229.40672 666.88 226.08896 670.50496 222.18752 674.01728 218.58304 677.31456 214.58944 679.936 210.2272 682.67008 206.0288 684.29824 201.08288 685.53728 196.22912 686.00832 195.75808 686.00832 195.08224 686.00832 193.96608 685.53728 193.08544 683.61216 191.66208 682.67008 189.7984 678.10304 188.63104 675.6352 187.38176 672.09216 186.34752 668.416 185.79456 664.79104 184.25856 656.5376 183.67488 651.6736 183.67488 646.73792 183.67488 635.71968 184.25856 623.81056 185.22112 617.728 186.34752 611.46112 187.38176 604.71296 189.21472 598.43584 191.27296 591.2064 193.39264 584.16128 196.22912 576.91136 198.90176 569.99936 202.5984 562.98496 206.0288 555.37664 210.2272 548.23936 215.16288 540.53888 220.18048 533.61664 225.42336 525.91616 229.79584 520.5504 235.39712 514.4064 241.29536 508.2112 244.03968 505.26208 247.36768 501.94432 252.20096 497.75616 257.16736 493.48608 265.24672 486.2464 271.33952 481.792Z\" p-id=\"9447\" /></symbol>"
});
var result = sprite.add(symbol);
export default symbol

<svg class="icon" viewBox="0 0 1024 1024" xmlns="http://www.w3.org/2000/svg" width="64" height="64"><defs><style/></defs><path d="M273.51 480.174l-1.198-3.727-.972-4.844-.646-2.652v-10.926l1.158-4.3 1.177-4.547 1.557-4.772 2.099-5.315 2.754-5.52 3.892-5.529v-3.87l.378-3.625.605-4.926 1.669-5.54 1.536-5.98 1.229-2.744 1.413-2.56 1.822-2.847 1.987-2.12v-13.67l1.147-7.045 1.157-8.182 2.058-9.79 2.837-10.188 2.11-5.601 2.088-6.093 2.294-5.683 2.744-6.093 2.796-6.666 3.215-6.247 3.615-6.666 4.557-6.656 2.109-3.82 2.243-3.123 4.884-7.045 5.028-7.025 5.704-7.229 6.113-7.035 6.635-6.932 6.923-7.127 8.376-7.69 5.314-4.68 6.482-5.049 6.574-4.454 7.107-4.28 6.83-3.81 7.7-3.154 8.182-3.88 8.13-2.663 8.111-2.765 8.765-2.744 8.756-2.089 9.205-1.74 9.34-1.506 9.215-1.229 9.206-1.26 9.82-.532h29.01l9.667 1.219 9.717 1.157 9.902 1.034 9.196 2.212 9.708 2.068 9.113 2.376 9.984 2.652 9.134 3.236 8.745 3.697 9.339 3.911 8.52 4.27 8.284 4.752 8.12 5.232 6.994 4.864 3.246 2.745 3.4 2.007 6.492 5.509 5.468 5.325 5.458 5.509 5.315 6.082 4.382 5.899 5.223 6.092 3.635 6.544 3.686 5.816 3.912 6.769 3.246 5.888 5.458 12.462 2.683 6.44 2.1 5.97 2.098 6.483 1.885 6.092 1.31 5.243 1.7 6.165 2.98 11.008 1.905 9.636 1.239 9.318 1.065 7.496 1.679 11.417.379 1.813 1.341 2.058 3.615 5.909 2.324 4.003 2.059 4.168 2.621 4.465 2.314 5.355 1.506 5.479 1.638 6.01 1.24 6.165.562 3.031.523 3.738v3.246l-.523 3.215v4.004l-.942 3.88-1.72 7.517-1.976 3.799-1.465 4.27v1.065l.697 1.321 1.966 3.123 8.56 12.667 6.759 9.513 3.236 6.349 4.362 6.953 3.799 7.618 4.383 8.141 4.382 9.155 4.936 10.363 2.785 6.348 2.54 6.206 2.191 6.543 2.16 5.888 1.65 6.185 1.679 5.806 2.12 11.326 1.679 11.57 1.157 10.261v14.48l-.778 5.13-1.106 8.858-1.516 7.956-2.355 7.22-.88 2.938-1.65 3.543-1.371 2.468-1.844 3.041-1.618 1.915-2.058 2.478-1.843 1.997-1.966 1.71-2.355 1.034-2.12 1.035-1.74.573h-2.664l-1.7-.573-3.236-1.598-1.485-1.065-1.556-1.116-1.7-1.526-1.72-1.71-2.837-3.154-3.358-4.454-2.642-4.598-2.642-3.676-2.58-4.28-3.636-7.598-4.086-7.906-.481-.276h-.676l-1.659 1.239-.962 2.079-1.598 2.58-2.785 7.68-4.198 10.926-5.376 13.148-4.045 6.554-4.24 6.84-5.038 7.69-5.345 7.527-2.734 3.41-3.318 3.717-7.629 7.496.666.675 1.034 1.076 3.81 2.232 15.872 7.629 6.922 3.901 6.605 3.789 6.533 4.772 5.826 4.915 2.816 2.222 2.12 2.56 2.181 2.97 1.802 3.215.973 2.673 1.188 3.205.512 2.775.563 3.236-.563 2.17v2.202l-.512 2.273-1.188 2.08-.45 1.627-1.086 1.977-2.877 3.922-2.663 3.143-2.058 2.355-1.72 1.741-4.383 3.195-4.956 2.785-5.284 2.663-5.663 2.56-6.318 2.478-3.4 1.034-2.98.84-7.341 1.71-7.578 1.628-7.619 1.618-8.284 1.352-8.54.358-8.755 1.055h-27.177l-9.8-.574-9.124-.84-9.84-1.351-9.759-1.044-10.28-1.434-9.964-2.478-9.718-1.874-9.657-2.765-9.902-3.543-9.717-2.929-5.12-1.71-4.547-1.618-2.877-1.116-2.857-.604h-8.08l-9.339-.655-4.72-.482-6.083-.675-3.901 3.532-5.325 3.328-7.22 3.513-7.986 4.382-4.854 2.376-5.069 1.884-11.192 4.578-6.083 1.525-6.38 1.72-8.847 1.721-5.54.43-5.857.502-6.113.676-7.117.266H375.84l-16.415-.266-15.944-1.608-8.069-1.147-7.792-1.157-7.588-1.137-7.588-1.525-7.076-2.284-7.035-1.628-6.349-2.55-6-2.376-5.602-2.672-4.864-2.919-4.823-3.553-1.648-1.72-2.16-2.079-1.64-1.812-1.474-2.09-1.362-2.078-1.054-2.1-1.526-4.454-.533-2.304-.676-2.56v-2.365l.676-2.673v-2.652l.533-2.652v-5.356l.256-2.826 1.27-3.236 1.054-3.235 1.915-3.902 1.403-1.505 1.157-1.741 3.02-3.697 2.407-1.904 2.274-1.331 2.099-1.69 3.318-1.055 2.662-1.618 3.318-1.71 3.778-1.136 3.8-1.158 4.403-.962 4.167-.553 4.946-.645 5.366-.41 1.393-.46h.307l.676-.574v-.655l-.983-1.332-2.847-1.351-7.117-6.165-4.782-3.809-5.53-4.844-5.57-5.417-5.796-6.922-6.677-7.803-2.488-4.219-3.297-4.362-2.847-5.038-2.56-5.509-3.45-5.243-2.254-5.98-2.682-5.97-2.683-6.656-1.946-6.38-1.853-7.884-.553-.287h-.564l-.286-.563h-.686l-1.127.563-.563.287-.778 1.32-.277 1.608-.583 1.434-1.014 2.386-3.256 5.796-1.69 3.512-2.683 3.062-2.847 3.686-3.143 4.086-3.318 3.625-3.901 3.512-3.605 3.298-3.994 2.621-4.362 2.734-4.198 1.628-4.946 1.24-4.854.47h-1.147l-1.116-.47-.88-1.926-1.424-.942-1.864-4.567-1.167-2.468-1.25-3.543-1.033-3.676-.553-3.625-1.536-8.253-.584-4.864V635.72l.584-11.91.962-6.082 1.127-6.267 1.034-6.748 1.833-6.277 2.058-7.23 2.12-7.045 2.836-7.25 2.673-6.912 3.696-7.014 3.43-7.608 4.2-7.138 4.935-7.7 5.017-6.922 5.243-7.7 4.373-5.367 5.601-6.144 5.898-6.195 2.745-2.949 3.328-3.318 4.833-4.188 4.966-4.27 8.08-7.24 6.093-4.454z"/></svg>
